communes/341.svg

<?xml version="1.0" encoding="UTF-8" standalone="no"?>
<svg
   xmlns:dc="http://purl.org/dc/elements/1.1/"
   xmlns:cc="http://web.resource.org/cc/"
   xmlns:rdf="http://www.w3.org/1999/02/22-rdf-syntax-ns#"
   xmlns:svg="http://www.w3.org/2000/svg"
   xmlns="http://www.w3.org/2000/svg"
   xmlns:xlink="http://www.w3.org/1999/xlink"
   xmlns:sodipodi="http://sodipodi.sourceforge.net/DTD/sodipodi-0.dtd"
   xmlns:inkscape="http://www.inkscape.org/namespaces/inkscape"
   height="763"
   width="603"
   version="1.0"
   id="svg20"
   sodipodi:version="0.32"
   inkscape:version="0.44.1"
   sodipodi:docname="Schwarzhäusern-coat of arms.svg"
   sodipodi:docbase="F:\Mis Documentos\Mis imágenes\Encyclopédie\Escudos de Suiza">
  <metadata
     id="metadata31">
    <rdf:RDF>
      <cc:Work
         rdf:about="">
        <dc:format>image/svg+xml</dc:format>
        <dc:type
           rdf:resource="http://purl.org/dc/dcmitype/StillImage" />
        <dc:date>07-AUG-2006</dc:date>
        <dc:creator>
          <cc:Agent>
            <dc:title>Jérôme BLUM (wagner51)</dc:title>
          </cc:Agent>
        </dc:creator>
        <cc:license
           rdf:resource="http://creativecommons.org/licenses/GPL/2.0/" />
        <dc:coverage />
        <dc:description>Gabarit pour le Projet:Blasons de WIkipédia</dc:description>
        <dc:subject>
          <rdf:Bag>
            <rdf:li>blason suisse modèle gabarit projet blasons</rdf:li>
          </rdf:Bag>
        </dc:subject>
        <dc:language>fr</dc:language>
        <dc:title>Gabrit d'un blason suisse</dc:title>
      </cc:Work>
      <cc:License
         rdf:about="http://creativecommons.org/licenses/GPL/2.0/">
        <cc:permits
           rdf:resource="http://web.resource.org/cc/Reproduction" />
        <cc:permits
           rdf:resource="http://web.resource.org/cc/Distribution" />
        <cc:requires
           rdf:resource="http://web.resource.org/cc/Notice" />
        <cc:permits
           rdf:resource="http://web.resource.org/cc/DerivativeWorks" />
        <cc:requires
           rdf:resource="http://web.resource.org/cc/ShareAlike" />
        <cc:requires
           rdf:resource="http://web.resource.org/cc/SourceCode" />
      </cc:License>
    </rdf:RDF>
  </metadata>
  <defs
     id="defs29">
    <linearGradient
       id="linearGradient2893">
      <stop
         style="stop-color:#ffffff;stop-opacity:0.3137255;"
         offset="0"
         id="stop2895" />
      <stop
         id="stop2897"
         offset="0.19"
         style="stop-color:#ffffff;stop-opacity:0.25098041;" />
      <stop
         style="stop-color:#6b6b6b;stop-opacity:0.1254902;"
         offset="0.60000002"
         id="stop2901" />
      <stop
         style="stop-color:#000000;stop-opacity:0.1254902;"
         offset="1"
         id="stop2899" />
    </linearGradient>
    <linearGradient
       id="linearGradient2955">
      <stop
         style="stop-color:white;stop-opacity:0;"
         offset="0"
         id="stop2965" />
      <stop
         style="stop-color:black;stop-opacity:0.64583331;"
         offset="1"
         id="stop2959" />
    </linearGradient>
    <radialGradient
       inkscape:collect="always"
       xlink:href="#linearGradient2893"
       id="radialGradient3236"
       gradientUnits="userSpaceOnUse"
       gradientTransform="matrix(1.215027,1.531577e-24,1.464684e-23,1.266667,-839.1924,-490.4894)"
       cx="858.04236"
       cy="579.93323"
       fx="858.04236"
       fy="579.93323"
       r="300" />
  </defs>
  <sodipodi:namedview
     inkscape:window-height="682"
     inkscape:window-width="1024"
     inkscape:pageshadow="2"
     inkscape:pageopacity="0.0"
     guidetolerance="10.0"
     gridtolerance="10.0"
     objecttolerance="10.0"
     borderopacity="1.0"
     bordercolor="#666666"
     pagecolor="#ffffff"
     id="base"
     inkscape:zoom="0.60501848"
     inkscape:cx="721.48362"
     inkscape:cy="425.43195"
     inkscape:window-x="-4"
     inkscape:window-y="-4"
     inkscape:current-layer="layer2"
     showgrid="true"
     showguides="true"
     inkscape:guide-bbox="true">
    <sodipodi:guide
       orientation="vertical"
       position="300"
       id="guide15404" />
  </sodipodi:namedview>
  <desc
     id="desc22">Coat of Arms of Canton of Freiburg (Fribourg)</desc>
  <g
     inkscape:groupmode="layer"
     id="layer1"
     inkscape:label="Fond écu"
     sodipodi:insensitive="true">
    <path
       id="path1899"
       d="M 1.5,1.49998 L 1.5,460.3679 C 1.5,626.6785 135.81456,761.5 301.49999,761.5 C 467.18543,761.5 601.5,626.6785 601.5,460.3679 L 601.5,1.49998 L 1.5,1.49998 z "
       style="fill:#fcef3c;fill-opacity:1" />
  </g>
  <g
     inkscape:groupmode="layer"
     id="layer2"
     inkscape:label="Meubles"
     sodipodi:insensitive="true">
    <g
       id="g13586"
       transform="matrix(4.06066,0,0,4.06066,-2528.754,-2314.514)">
      <path
         sodipodi:nodetypes="ccccccccc"
         id="path8264"
         d="M 703.76037,703.20661 L 761.44624,702.79339 L 761.44624,671.14055 L 767.31413,671.14055 L 751.03303,643 L 715,643 L 699.58679,669.59101 L 703.76037,669.59101 L 703.76037,703.20661 z "
         style="fill:black;fill-opacity:1;fill-rule:evenodd;stroke:black;stroke-width:1px;stroke-linecap:butt;stroke-linejoin:miter;stroke-opacity:1" />
      <path
         sodipodi:nodetypes="ccc"
         id="path9151"
         d="M 767.54109,671.14056 L 730.5562,671.14056 L 714.81451,642.83563"
         style="fill:none;fill-rule:evenodd;stroke:white;stroke-width:1px;stroke-linecap:butt;stroke-linejoin:miter;stroke-opacity:1" />
      <rect
         ry="5.5470943"
         rx="0"
         y="675.54907"
         x="743.14233"
         height="11.094189"
         width="6.6888032"
         id="rect10038"
         style="opacity:1;fill:none;fill-opacity:1;fill-rule:nonzero;stroke:white;stroke-width:1;stroke-miterlimit:4;stroke-dasharray:none;stroke-opacity:1" />
      <path
         sodipodi:nodetypes="cc"
         id="path11810"
         d="M 732.41321,674 L 732.41321,703"
         style="fill:none;fill-rule:evenodd;stroke:white;stroke-width:1px;stroke-linecap:butt;stroke-linejoin:miter;stroke-opacity:1" />
      <path
         sodipodi:nodetypes="cc"
         id="path11812"
         d="M 716.41321,650.27688 L 705.38018,669.92972"
         style="fill:none;fill-rule:evenodd;stroke:white;stroke-width:1px;stroke-linecap:butt;stroke-linejoin:miter;stroke-opacity:1" />
      <path
         id="path11814"
         d="M 714,703 L 714,679 L 722,679 L 722,703"
         style="fill:none;fill-rule:evenodd;stroke:white;stroke-width:1px;stroke-linecap:butt;stroke-linejoin:miter;stroke-opacity:1" />
    </g>
    <path
       style="fill:#5ab532;fill-opacity:1;fill-rule:evenodd;stroke:black;stroke-width:3;stroke-linecap:butt;stroke-linejoin:miter;stroke-miterlimit:4;stroke-dasharray:none;stroke-opacity:1"
       d="M 12.9375,543 C 48.716648,669.13661 164.36085,761.5 301.5,761.5 C 438.63921,761.5 554.28333,669.13661 590.0625,543 L 12.9375,543 z "
       id="path14495" />
    <g
       transform="matrix(-4.06066,0,0,4.06066,3128.754,-2314.514)"
       id="g15388">
      <path
         style="fill:black;fill-opacity:1;fill-rule:evenodd;stroke:black;stroke-width:1px;stroke-linecap:butt;stroke-linejoin:miter;stroke-opacity:1"
         d="M 703.76037,703.20661 L 761.44624,702.79339 L 761.44624,671.14055 L 767.31413,671.14055 L 751.03303,643 L 715,643 L 699.58679,669.59101 L 703.76037,669.59101 L 703.76037,703.20661 z "
         id="path15390"
         sodipodi:nodetypes="ccccccccc" />
      <path
         style="fill:none;fill-rule:evenodd;stroke:white;stroke-width:1px;stroke-linecap:butt;stroke-linejoin:miter;stroke-opacity:1"
         d="M 767.54109,671.14056 L 730.5562,671.14056 L 714.81451,642.83563"
         id="path15392"
         sodipodi:nodetypes="ccc" />
      <rect
         style="opacity:1;fill:none;fill-opacity:1;fill-rule:nonzero;stroke:white;stroke-width:1;stroke-miterlimit:4;stroke-dasharray:none;stroke-opacity:1"
         id="rect15394"
         width="6.6888032"
         height="11.094189"
         x="743.14233"
         y="675.54907"
         rx="0"
         ry="5.5470943" />
      <path
         style="fill:none;fill-rule:evenodd;stroke:white;stroke-width:1px;stroke-linecap:butt;stroke-linejoin:miter;stroke-opacity:1"
         d="M 732.41321,674 L 732.41321,703"
         id="path15396"
         sodipodi:nodetypes="cc" />
      <path
         style="fill:none;fill-rule:evenodd;stroke:white;stroke-width:1px;stroke-linecap:butt;stroke-linejoin:miter;stroke-opacity:1"
         d="M 716.41321,650.27688 L 705.38018,669.92972"
         id="path15398"
         sodipodi:nodetypes="cc" />
      <path
         style="fill:none;fill-rule:evenodd;stroke:white;stroke-width:1px;stroke-linecap:butt;stroke-linejoin:miter;stroke-opacity:1"
         d="M 714,703 L 714,679 L 722,679 L 722,703"
         id="path15400" />
    </g>
    <path
       sodipodi:type="star"
       style="opacity:1;fill:#2b5df2;fill-opacity:1;fill-rule:nonzero;stroke:black;stroke-width:3;stroke-miterlimit:4;stroke-dasharray:none;stroke-opacity:1"
       id="path15402"
       sodipodi:sides="6"
       sodipodi:cx="218.17516"
       sodipodi:cy="90.293282"
       sodipodi:r1="183.97105"
       sodipodi:r2="97.412834"
       sodipodi:arg1="0.54812351"
       sodipodi:arg2="1.1277938"
       inkscape:flatsided="false"
       inkscape:rounded="0"
       inkscape:randomized="0"
       d="M 375.19516,186.15812 L 259.93156,178.30273 L 213.66377,274.20901 L 162.83494,170.46012 L 56.643766,178.34417 L 121.07854,82.45067 L 61.155155,-5.5715614 L 176.41875,2.2838357 L 222.68654,-93.622449 L 273.51537,10.126448 L 379.70655,2.2423935 L 315.27178,98.135894 L 375.19516,186.15812 z "
       transform="matrix(0.953637,-2.396988e-2,2.396988e-2,0.953637,91.81129,105.1991)" />
  </g>
  <g
     inkscape:groupmode="layer"
     id="layer3"
     inkscape:label="Reflet final"
     style="display:inline"
     sodipodi:insensitive="true">
    <path
       style="fill:url(#radialGradient3236);fill-opacity:1"
       d="M 1.5,1.5 L 1.5,460.3679 C 1.5,626.67854 135.81454,761.5 301.49993,761.5 C 467.1854,761.5 601.5,626.67854 601.5,460.3679 L 601.5,1.5 L 1.5,1.5 z "
       id="path2346" />
  </g>
  <g
     inkscape:groupmode="layer"
     id="layer4"
     inkscape:label="Contour final"
     style="display:inline"
     sodipodi:insensitive="true">
    <path
       style="fill:none;fill-opacity:1;stroke:black;stroke-width:3;stroke-miterlimit:4;stroke-dasharray:none;stroke-opacity:1"
       d="M 1.5,1.5 L 1.5,460.36794 C 1.5,626.67854 135.81454,761.5 301.49993,761.5 C 467.1854,761.5 601.5,626.67854 601.5,460.36794 L 601.5,1.5 L 1.5,1.5 z "
       id="path3239" />
  </g>
</svg>

<?xml version="1.0" encoding="UTF-8"?>
<svg version="1.0" viewBox="0 0 603 763" xmlns="http://www.w3.org/2000/svg" xmlns:cc="http://web.resource.org/cc/" xmlns:dc="http://purl.org/dc/elements/1.1/" xmlns:rdf="http://www.w3.org/1999/02/22-rdf-syntax-ns#" xmlns:xlink="http://www.w3.org/1999/xlink">
<metadata>
<rdf:RDF>
<cc:Work rdf:about="">
<dc:format>image/svg+xml</dc:format>
<dc:type rdf:resource="http://purl.org/dc/dcmitype/StillImage"/>
<dc:date>07-AUG-2006</dc:date>
<dc:creator>
<cc:Agent>
<dc:title>Jérôme BLUM (wagner51)</dc:title>
</cc:Agent>
</dc:creator>
<cc:license rdf:resource="http://creativecommons.org/licenses/GPL/2.0/"/>
<dc:coverage/>
<dc:description>Gabarit pour le Projet:Blasons de WIkipédia</dc:description>
<dc:subject>
<rdf:Bag>
<rdf:li>blason suisse modèle gabarit projet blasons</rdf:li>
</rdf:Bag>
</dc:subject>
<dc:language>fr</dc:language>
<dc:title>Gabrit d'un blason suisse</dc:title>
</cc:Work>
<cc:License rdf:about="http://creativecommons.org/licenses/GPL/2.0/">
<cc:permits rdf:resource="http://web.resource.org/cc/Reproduction"/>
<cc:permits rdf:resource="http://web.resource.org/cc/Distribution"/>
<cc:requires rdf:resource="http://web.resource.org/cc/Notice"/>
<cc:permits rdf:resource="http://web.resource.org/cc/DerivativeWorks"/>
<cc:requires rdf:resource="http://web.resource.org/cc/ShareAlike"/>
<cc:requires rdf:resource="http://web.resource.org/cc/SourceCode"/>
</cc:License>
</rdf:RDF>
</metadata>
<defs>
<radialGradient id="a" cx="858.04" cy="579.93" r="300" gradientTransform="matrix(1.215 1.5316e-24 1.4647e-23 1.2667 -839.19 -490.49)" gradientUnits="userSpaceOnUse">
<stop stop-color="#fff" stop-opacity=".31373" offset="0"/>
<stop stop-color="#fff" stop-opacity=".25098" offset=".19"/>
<stop stop-color="#6b6b6b" stop-opacity=".12549" offset=".6"/>
<stop stop-opacity=".12549" offset="1"/>
</radialGradient>
</defs>
<desc>Coat of Arms of Canton of Freiburg (Fribourg)</desc>
<path d="m1.5 1.5v458.87c0 166.31 134.31 301.13 300 301.13 165.69 0 300-134.82 300-301.13v-458.87h-600z" fill="#fcef3c"/>
<g>
<g transform="matrix(4.0607 0 0 4.0607 -2528.8 -2314.5)">
<path d="m703.76 703.21 57.686-0.41322v-31.653h5.8679l-16.281-28.141h-36.033l-15.413 26.591h4.1736v33.616z" fill-rule="evenodd" stroke="#000" stroke-width="1px"/>
<path d="m767.54 671.14h-36.985l-15.742-28.305" fill="none" stroke="#fff" stroke-width="1px"/>
<rect x="743.14" y="675.55" width="6.6888" height="11.094" rx="0" ry="5.5471" fill="none" stroke="#fff"/>
<path d="m732.41 674v29" fill="none" stroke="#fff" stroke-width="1px"/>
<path d="m716.41 650.28-11.033 19.653" fill="none" stroke="#fff" stroke-width="1px"/>
<path d="m714 703v-24h8v24" fill="none" stroke="#fff" stroke-width="1px"/>
</g>
<path d="m12.938 543c35.779 126.14 151.42 218.5 288.56 218.5 137.14 0 252.78-92.363 288.56-218.5h-577.12z" fill="#5ab532" fill-rule="evenodd" stroke="#000" stroke-width="3"/>
<g transform="matrix(-4.0607 0 0 4.0607 3128.8 -2314.5)">
<path d="m703.76 703.21 57.686-0.41322v-31.653h5.8679l-16.281-28.141h-36.033l-15.413 26.591h4.1736v33.616z" fill-rule="evenodd" stroke="#000" stroke-width="1px"/>
<path d="m767.54 671.14h-36.985l-15.742-28.305" fill="none" stroke="#fff" stroke-width="1px"/>
<rect x="743.14" y="675.55" width="6.6888" height="11.094" rx="0" ry="5.5471" fill="none" stroke="#fff"/>
<path d="m732.41 674v29" fill="none" stroke="#fff" stroke-width="1px"/>
<path d="m716.41 650.28-11.033 19.653" fill="none" stroke="#fff" stroke-width="1px"/>
<path d="m714 703v-24h8v24" fill="none" stroke="#fff" stroke-width="1px"/>
</g>
<path transform="matrix(.95364 -.02397 .02397 .95364 91.811 105.2)" d="m375.2 186.16-115.26-7.8554-46.268 95.906-50.829-103.75-106.19 7.884 64.435-95.894-59.923-88.022 115.26 7.8554 46.268-95.906 50.829 103.75 106.19-7.8841-64.435 95.894 59.923 88.022z" fill="#2b5df2" stroke="#000" stroke-width="3"/>
</g>
<g>
<path d="m1.5 1.5v458.87c0 166.31 134.31 301.13 300 301.13 165.69 0 300-134.82 300-301.13v-458.87h-600z" fill="url(#a)"/>
<path d="m1.5 1.5v458.87c0 166.31 134.31 301.13 300 301.13 165.69 0 300-134.82 300-301.13v-458.87h-600z" fill="none" stroke="#000" stroke-width="3"/>
</g>
</svg>
